**harmony	**harte	**kern	**silbe	**rhyme	**phrase
*M4/4	*M4/4	*ICvox	*	*	*
*	*	*VRlead	*	*	*
*	*	*Hstimme	*	*	*
*E:	*E:	*E:	*	*	*
*	*	*M4/4	*	*	*
*	*	*clefG2	*	*	*
1r;	1r	r;	.	.	.
=1	=1	=1	=1	=1	=1
*>Letter>A	*>Letter>A	*>Letter>A	*>Letter>A	*>Letter>A	*>Letter>A
*>Label>Intro	*>Label>Intro	*>Label>Intro	*>Label>Intro	*>Label>Intro	*>Label>Intro
1AM	A:maj	1r	.	.	newline
=2	=2	=2	=2	=2	=2
1AM	A:maj	1r	.	.	.
=3	=3	=3	=3	=3	=3
1BM	B:maj	1r	.	.	.
=4	=4	=4	=4	=4	=4
1BM	B:maj	1r	.	.	.
=5	=5	=5	=5	=5	=5
1EM	E:maj	1r	.	.	.
=6	=6	=6	=6	=6	=6
1EM	E:maj	1r	.	.	.
=7	=7	=7	=7	=7	=7
1EM	E:maj	1r	.	.	.
=8	=8	=8	=8	=8	=8
1EM	E:maj	2r	.	.	.
.	.	4.r	.	.	.
.	.	8B	They	.	.
=9	=9	=9	=9	=9	=9
*>Letter>B	*>Letter>B	*>Letter>B	*>Letter>B	*>Letter>B	*>Letter>B
*>Label>Verse	*>Label>Verse	*>Label>Verse	*>Label>Verse	*>Label>Verse	*>Label>Verse
1AM	A:maj	4c#	paved	.	newline
.	.	8e	par-	.	.
.	.	8e	-a-	.	.
.	.	4f#	-dise	.	.
.	.	8f#	and	.	.
.	.	8f#	they	.	.
=10	=10	=10	=10	=10	=10
1AM	A:maj	8c#	put	.	.
.	.	8c#	up	.	.
.	.	8e	a	.	.
.	.	[8f#	park-	.	.
.	.	8f#]	_	.	.
.	.	4e	-ing	.	.
.	.	[8F#	lot	A	.
=11	=11	=11	=11	=11	=11
1EM	E:maj	2..F#]	_	.	.
.	.	8r	.	.	.
=12	=12	=12	=12	=12	=12
1EM	E:maj	2r	.	.	.
.	.	4r	.	.	.
.	.	8e	With	.	.
.	.	8e	a	.	.
=13	=13	=13	=13	=13	=13
1AM	A:maj	8B	pink	.	.
.	.	8c#	_	.	.
.	.	4e	ho-	.	.
.	.	4f#	-tel	.	.
.	.	8r	.	.	.
.	.	8~c#	a	.	.
=14	=14	=14	=14	=14	=14
1BM	B:maj	8e	bou-	.	.
.	.	8f#	-tique	.	.
.	.	8f#	and	.	.
.	.	[8e	a	.	.
.	.	8e]	_	.	.
.	.	[4.g#	swing-	.	.
=15	=15	=15	=15	=15	=15
1EM	E:maj	8g#]	_	.	.
.	.	4f#	-ing	.	.
.	.	[8e	hot	.	.
.	.	4.e]	_	.	.
.	.	[8e	spot	A	.
=16	=16	=16	=16	=16	=16
1EM	E:maj	2.e]	_	.	.
.	.	4r	.	.	.
=17	=17	=17	=17	=17	=17
*>Letter>C	*>Letter>C	*>Letter>C	*>Letter>C	*>Letter>C	*>Letter>C
*>Label>Chorus	*>Label>Chorus	*>Label>Chorus	*>Label>Chorus	*>Label>Chorus	*>Label>Chorus
1EM	E:maj	4r	.	.	newline
.	.	8b	Don't	B	.
.	.	8b	it	.	.
.	.	4cc#	al-	.	.
.	.	4cc#	-ways	.	.
=18	=18	=18	=18	=18	=18
1EMM	E:maj7	8r	.	.	.
.	.	4b	seem	.	.
.	.	8b	to	.	.
.	.	8b	go	B	.
.	.	4.cc#	_	.	.
=19	=19	=19	=19	=19	=19
1EM	E:maj	8r	.	.	.
.	.	8~e	You	.	.
.	.	8a	don't	.	.
.	.	8g#	know	.	.
.	.	8f#	what	.	.
.	.	4e	you've	.	.
.	.	[8f#	got	C	.
=20	=20	=20	=20	=20	=20
1EM	E:maj	8f#]	_	.	.
.	.	8f#	till	.	.
.	.	8e	it's	.	.
.	.	[8g#	gone	C	.
.	.	4g#]	_	.	.
.	.	8r	.	.	.
.	.	8B	They	.	.
=21	=21	=21	=21	=21	=21
1AM	A:maj	4c#	paved	.	.
.	.	8e	par-	.	.
.	.	8e	-a-	.	.
.	.	4f#	-dise	.	.
.	.	8f#	and	.	.
.	.	8e	they	.	.
=22	=22	=22	=22	=22	=22
1BM	B:maj	8r	.	.	.
.	.	8f#	put	.	.
.	.	8f#	up	.	.
.	.	8e	a	.	.
.	.	4g#	park-	.	.
.	.	8e	-ing	.	.
.	.	[8e	lot	C	.
=23	=23	=23	=23	=23	=23
1EM	E:maj	1e_	_	.	.
=24	=24	=24	=24	=24	=24
1EM	E:maj	2.e]	_	.	.
.	.	4r	.	.	.
=25	=25	=25	=25	=25	=25
1EM	E:maj	1r	.	.	.
=26	=26	=26	=26	=26	=26
1EMm	E:7	1r	.	.	.
=27	=27	=27	=27	=27	=27
*>Letter>B	*>Letter>B	*>Letter>B	*>Letter>B	*>Letter>B	*>Letter>B
*>Label>Verse	*>Label>Verse	*>Label>Verse	*>Label>Verse	*>Label>Verse	*>Label>Verse
1AM	A:maj	8B	Took	.	newline
.	.	8c#	all	.	.
.	.	8B	the	.	.
.	.	8e	trees	.	.
.	.	4f#	_	.	.
.	.	4r	.	.	.
=28	=28	=28	=28	=28	=28
1AM	A:maj	8c#	Put	.	.
.	.	8c#	'em	.	.
.	.	8e	in	.	.
.	.	8e	a	.	.
.	.	4f#	tree	.	.
.	.	8e	_	.	.
.	.	[8e	mu-	.	.
=29	=29	=29	=29	=29	=29
1EM	E:maj	8e]	_	.	.
.	.	4e	-se-	(D	.
.	.	[8e	-um	d)	.
.	.	4.e]	_	.	.
.	.	8r	.	.	.
=30	=30	=30	=30	=30	=30
1EM	E:maj	2r	.	.	.
.	.	4r	.	.	.
.	.	8e	And	.	.
.	.	8e	they	.	.
=31	=31	=31	=31	=31	=31
1AM	A:maj	8B	charged	.	.
.	.	8c#	_	.	.
.	.	8e	all	.	.
.	.	8e	the	.	.
.	.	8e	peo-	.	.
.	.	8f#	-ple	.	.
.	.	8r	.	.	.
.	.	8~c#	a	.	.
=32	=32	=32	=32	=32	=32
1BM	B:maj	8f#	dol-	.	.
.	.	8f#	-lar	.	.
.	.	8f#	and	.	.
.	.	8e	a	.	.
.	.	4.g#	half	.	.
.	.	[8e	just	.	.
=33	=33	=33	=33	=33	=33
1EM	E:maj	8e]	_	.	.
.	.	4c#	to	.	.
.	.	[8e	see	(D	.
.	.	8e]	_	.	.
.	.	[4.e	'em	d)	.
=34	=34	=34	=34	=34	=34
1EM	E:maj	4e]	_	.	.
.	.	4r	.	.	.
.	.	2r	.	.	.
=35	=35	=35	=35	=35	=35
*>Letter>C	*>Letter>C	*>Letter>C	*>Letter>C	*>Letter>C	*>Letter>C
*>Label>Chorus	*>Label>Chorus	*>Label>Chorus	*>Label>Chorus	*>Label>Chorus	*>Label>Chorus
1EM	E:maj	4r	.	.	newline
.	.	8b	Don't	B	.
.	.	8b	it	.	.
.	.	4cc#	al-	.	.
.	.	4cc#	-ways	.	.
=36	=36	=36	=36	=36	=36
1EMM	E:maj7	8r	.	.	.
.	.	4b	seem	.	.
.	.	8b	to	.	.
.	.	8b	go	B	.
.	.	4.cc#	_	.	.
=37	=37	=37	=37	=37	=37
1EM	E:maj	8r	.	.	.
.	.	8~e	You	.	.
.	.	8a	don't	.	.
.	.	8g#	know	.	.
.	.	8f#	what	.	.
.	.	4e	you've	.	.
.	.	[8f#	got	C	.
=38	=38	=38	=38	=38	=38
1EM	E:maj	8f#]	_	.	.
.	.	8e	till	.	.
.	.	8e	it's	.	.
.	.	[8e	gone	C	.
.	.	4e]	_	.	.
.	.	8r	.	.	.
.	.	8B	They	.	.
=39	=39	=39	=39	=39	=39
1AM	A:maj	4c#	paved	.	.
.	.	8e	par-	.	.
.	.	8e	-a-	.	.
.	.	4f#	-dise	.	.
.	.	8f#	and	.	.
.	.	8e	they	.	.
=40	=40	=40	=40	=40	=40
1BM	B:maj	8f#	put	.	.
.	.	4f#	up	.	.
.	.	8e	a	.	.
.	.	4.g#	park-	.	.
.	.	[8e	-ing	.	.
=41	=41	=41	=41	=41	=41
1EM	E:maj	2e]	_	.	.
.	.	[2e	lot	C	.
=42	=42	=42	=42	=42	=42
1EM	E:maj	1e_	_	.	.
=43	=43	=43	=43	=43	=43
1EM	E:maj	4e]	_	.	.
.	.	4r	.	.	.
.	.	2r	.	.	.
=44	=44	=44	=44	=44	=44
1EMm	E:7	1r	.	.	.
=45	=45	=45	=45	=45	=45
*>Letter>B	*>Letter>B	*>Letter>B	*>Letter>B	*>Letter>B	*>Letter>B
*>Label>Verse	*>Label>Verse	*>Label>Verse	*>Label>Verse	*>Label>Verse	*>Label>Verse
1AM	A:maj	4c#	Hey	.	newline
.	.	8e	farm-	.	.
.	.	8e	-er	.	.
.	.	4f#	farm-	.	.
.	.	8f#	-er	.	.
.	.	8r	.	.	.
=46	=46	=46	=46	=46	=46
1AM	A:maj	8c#	put	.	.
.	.	8c#	a-	.	.
.	.	8e	-way	.	.
.	.	8e	that	.	.
.	.	4f#	D.	D	.
.	.	8e	D.	D	.
.	.	[8e	T.	D	.
=47	=47	=47	=47	=47	=47
1EM	E:maj	8e]	_	.	.
.	.	8e	now	.	.
.	.	4r	.	.	.
.	.	2r	.	.	.
=48	=48	=48	=48	=48	=48
1EM	E:maj	2r	.	.	.
.	.	4r	.	.	.
.	.	8e	Give	.	.
.	.	8e	me	.	.
=49	=49	=49	=49	=49	=49
1AM	A:maj	8B	spots	.	.
.	.	8c#	_	.	.
.	.	8e	on	.	.
.	.	8e	my	.	.
.	.	8e	appl-	.	.
.	.	8f#	-es	.	.
.	.	8r	.	.	.
.	.	8~c#	but	.	.
=50	=50	=50	=50	=50	=50
1BM	B:maj	8f#	leave	.	.
.	.	8f#	me	.	.
.	.	8e	the	.	.
.	.	[8g#	birds	.	.
.	.	2g#_	_	.	.
=51	=51	=51	=51	=51	=51
1EM	E:maj	8g#]	_	.	.
.	.	8e	and	.	.
.	.	8c#	the	.	.
.	.	[8e	bees	D	.
.	.	4e]	_	.	.
.	.	4r	.	.	.
=52	=52	=52	=52	=52	=52
1EM	E:maj	8r	.	.	.
.	.	4ee	Please	D	.
.	.	8cc#	_	.	.
.	.	8b	_	.	.
.	.	4cc#	_	.	.
.	.	8cc#	Don't	B	.
=53	=53	=53	=53	=53	=53
*>Letter>C	*>Letter>C	*>Letter>C	*>Letter>C	*>Letter>C	*>Letter>C
*>Label>Chorus	*>Label>Chorus	*>Label>Chorus	*>Label>Chorus	*>Label>Chorus	*>Label>Chorus
1EM	E:maj	4.b	_	.	newline
.	.	8b	it	.	.
.	.	8b	al-	.	.
.	.	4b	-ways	.	.
.	.	8r	.	.	.
=54	=54	=54	=54	=54	=54
1EMM	E:maj7	8r	.	.	.
.	.	4b	seem	.	.
.	.	8b	to	.	.
.	.	8b	go	B	.
.	.	4.cc#	_	.	.
=55	=55	=55	=55	=55	=55
1EM	E:maj	8r	.	.	.
.	.	8~e	You	.	.
.	.	8a	don't	.	.
.	.	8g#	know	.	.
.	.	8f#	what	.	.
.	.	4e	you've	.	.
.	.	[8f#	got	C	.
=56	=56	=56	=56	=56	=56
1EM	E:maj	8f#]	_	.	.
.	.	8f#	till	.	.
.	.	8e	it's	.	.
.	.	[8g#	gone	C	.
.	.	4g#]	_	.	.
.	.	8r	.	.	.
.	.	8B	They	.	.
=57	=57	=57	=57	=57	=57
1AM	A:maj	4c#	paved	.	.
.	.	8e	par-	.	.
.	.	8e	-a-	.	.
.	.	4f#	-dise	.	.
.	.	8f#	and	.	.
.	.	8e	they	.	.
=58	=58	=58	=58	=58	=58
1BM	B:maj	8r	.	.	.
.	.	8f#	put	.	.
.	.	8f#	up	.	.
.	.	8e	a	.	.
.	.	4g#	park-	.	.
.	.	8e	-ing	.	.
.	.	[8e	lot	C	.
=59	=59	=59	=59	=59	=59
1EM	E:maj	1e_	_	.	.
=60	=60	=60	=60	=60	=60
1EM	E:maj	1e_	_	.	.
=61	=61	=61	=61	=61	=61
1EM	E:maj	4e]	_	.	.
.	.	4r	.	.	.
.	.	2r	.	.	.
=62	=62	=62	=62	=62	=62
1EMm	E:7	1r	.	.	.
=63	=63	=63	=63	=63	=63
*>Letter>B	*>Letter>B	*>Letter>B	*>Letter>B	*>Letter>B	*>Letter>B
*>Label>Solo	*>Label>Solo	*>Label>Solo	*>Label>Solo	*>Label>Solo	*>Label>Solo
1AM	A:maj	1r	.	.	newline
=64	=64	=64	=64	=64	=64
1AM	A:maj	1r	.	.	.
=65	=65	=65	=65	=65	=65
1EM	E:maj	1r	.	.	.
=66	=66	=66	=66	=66	=66
1EM	E:maj	1r	.	.	.
=67	=67	=67	=67	=67	=67
1AM	A:maj	1r	.	.	.
=68	=68	=68	=68	=68	=68
1BM	B:maj	1r	.	.	.
=69	=69	=69	=69	=69	=69
1EM	E:maj	1r	.	.	.
=70	=70	=70	=70	=70	=70
1EM	E:maj	1r	.	.	.
=71	=71	=71	=71	=71	=71
1EM	E:maj	1r	.	.	newline
=72	=72	=72	=72	=72	=72
1EMM	E:maj7	1r	.	.	.
=73	=73	=73	=73	=73	=73
1EM	E:maj	1r	.	.	.
=74	=74	=74	=74	=74	=74
1EM	E:maj	1r	.	.	.
=75	=75	=75	=75	=75	=75
1AM	A:maj	1r	.	.	.
=76	=76	=76	=76	=76	=76
1BM	B:maj	1r	.	.	.
=77	=77	=77	=77	=77	=77
1EM	E:maj	1r	.	.	.
=78	=78	=78	=78	=78	=78
1EM	E:maj	1r	.	.	.
=79	=79	=79	=79	=79	=79
1EM	E:maj	1r	.	.	.
=80	=80	=80	=80	=80	=80
1EMm	E:7	1r	.	.	.
=81	=81	=81	=81	=81	=81
*>Letter>B	*>Letter>B	*>Letter>B	*>Letter>B	*>Letter>B	*>Letter>B
*>Label>Verse	*>Label>Verse	*>Label>Verse	*>Label>Verse	*>Label>Verse	*>Label>Verse
1AM	A:maj	4c#	Late	.	newline
.	.	4e	last	.	.
.	.	4f#	night	.	.
.	.	8r	.	.	.
.	.	8c#	I	.	.
=82	=82	=82	=82	=82	=82
1AM	A:maj	8c#	heard	.	.
.	.	4e	that	.	.
.	.	[8f#	screen	.	.
.	.	8f#]	_	.	.
.	.	4e	door	.	.
.	.	[8e	slam	E	.
=83	=83	=83	=83	=83	=83
1EM	E:maj	2e]	_	.	.
.	.	2r	.	.	.
=84	=84	=84	=84	=84	=84
1EM	E:maj	2r	.	.	.
.	.	4r	.	.	.
.	.	8e	And	.	.
.	.	8e	the	.	.
=85	=85	=85	=85	=85	=85
1AM	A:maj	8B	big	.	.
.	.	8c#	_	.	.
.	.	8e	yell-	.	.
.	.	8e	-ow	.	.
.	.	8e	trac-	.	.
.	.	8f#	-tor	.	.
.	.	8f#	come	.	.
.	.	[8e	and	.	.
=86	=86	=86	=86	=86	=86
1BM	B:maj	8e]	_	.	.
.	.	8.f#	pushed	.	.
.	.	8.e	a-	.	.
.	.	8f#	-round	.	.
.	.	8e	my	.	.
.	.	[4g#	house	.	.
=87	=87	=87	=87	=87	=87
1EM	E:maj	8g#]	_	.	.
.	.	8f#	pushed	.	.
.	.	8g#	_	.	.
.	.	8f#	a-	.	.
.	.	8g#	-round	.	.
.	.	4f#	my	.	.
.	.	8g#	land	E	.
=88	=88	=88	=88	=88	=88
1EM	E:maj	8f#	_	.	.
.	.	4.e	_	.	.
.	.	8.e	I	.	.
.	.	8.e	said	.	.
.	.	8r	.	.	.
=89	=89	=89	=89	=89	=89
*>Letter>C	*>Letter>C	*>Letter>C	*>Letter>C	*>Letter>C	*>Letter>C
*>Label>Chorus	*>Label>Chorus	*>Label>Chorus	*>Label>Chorus	*>Label>Chorus	*>Label>Chorus
1EM	E:maj	4r	.	.	newline
.	.	8b	Don't	B	.
.	.	8b	it	.	.
.	.	8b	al-	.	.
.	.	8b	-ways	.	.
.	.	8b	seem	.	.
.	.	[8b	to	.	.
=90	=90	=90	=90	=90	=90
1EMM	E:maj7	8b]	_	.	.
.	.	8b	go	B	.
.	.	4a	_	.	.
.	.	4.r	.	.	.
.	.	8~e	You	.	.
=91	=91	=91	=91	=91	=91
1EM	E:maj	8a	don't	.	.
.	.	4a	know	.	.
.	.	[8a	what	.	.
.	.	8a]	_	.	.
.	.	4g#	you've	.	.
.	.	[8f#	got	C	.
=92	=92	=92	=92	=92	=92
1EM	E:maj	8f#]	_	.	.
.	.	8f#	till	.	.
.	.	8e	it's	.	.
.	.	[8g#	gone	C	.
.	.	4g#]	_	.	.
.	.	8r	.	.	.
.	.	8B	They	.	.
=93	=93	=93	=93	=93	=93
1AM	A:maj	4c#	paved	.	.
.	.	8e	par-	.	.
.	.	8e	-a-	.	.
.	.	4f#	-dise	.	.
.	.	8f#	and	.	.
.	.	8e	they	.	.
=94	=94	=94	=94	=94	=94
1BM	B:maj	8f#	put	.	.
.	.	8f#	up	.	.
.	.	8e	a	.	.
.	.	[8g#	park-	.	.
.	.	4.g#]	_	.	.
.	.	[8e	-ing	.	.
=95	=95	=95	=95	=95	=95
1EM	E:maj	4.e]	_	.	.
.	.	[8e	lot	C	.
.	.	2e_	_	.	.
=96	=96	=96	=96	=96	=96
1EM	E:maj	1e_	_	.	.
=97	=97	=97	=97	=97	=97
1EM	E:maj	4e]	_	.	.
.	.	4r	.	.	.
.	.	2r	.	.	.
=98	=98	=98	=98	=98	=98
1EMm	E:7	1r	.	.	.
=99	=99	=99	=99	=99	=99
*>Letter>B	*>Letter>B	*>Letter>B	*>Letter>B	*>Letter>B	*>Letter>B
*>Label>Verse	*>Label>Verse	*>Label>Verse	*>Label>Verse	*>Label>Verse	*>Label>Verse
1AM	A:maj	4c#	Late	.	newline
.	.	4e	last	.	.
.	.	4f#	night	.	.
.	.	8r	.	.	.
.	.	8c#	I	.	.
=100	=100	=100	=100	=100	=100
1AM	A:maj	8c#	heard	.	.
.	.	4e	that	.	.
.	.	[8f#	screen	.	.
.	.	8f#]	_	.	.
.	.	4e	door	.	.
.	.	[8e	slam	.	.
=101	=101	=101	=101	=101	=101
1EM	E:maj	8e]	_	.	.
.	.	8e	a-	.	.
.	.	2e	-gain	F	.
.	.	4r	.	.	.
=102	=102	=102	=102	=102	=102
1EM	E:maj	2r	.	.	.
.	.	4r	.	.	.
.	.	8e	And	.	.
.	.	8e	the	.	.
=103	=103	=103	=103	=103	=103
1AM	A:maj	8B	big	.	.
.	.	8c#	_	.	.
.	.	8e	yell-	.	.
.	.	8e	-ow	.	.
.	.	8f#	ta-	.	.
.	.	8e	-xi	.	.
.	.	8f#	came	.	.
.	.	8e	and	.	.
=104	=104	=104	=104	=104	=104
1BM	B:maj	8f#	took	.	.
.	.	8f#	a-	.	.
.	.	8f#	-way	.	.
.	.	[8g#	my	.	.
.	.	8g#]	_	.	.
.	.	4g#	old	.	.
.	.	[8g#	man	F	.
=105	=105	=105	=105	=105	=105
1EM	E:maj	2g#_	_	.	.
.	.	8g#]	_	.	.
.	.	8r	.	.	.
.	.	8r	.	.	.
.	.	8f#	a-	.	.
=106	=106	=106	=106	=106	=106
1EM	E:maj	2..g#	-gain	.	.
.	.	8r	.	.	.
=107	=107	=107	=107	=107	=107
*>Letter>C	*>Letter>C	*>Letter>C	*>Letter>C	*>Letter>C	*>Letter>C
*>Label>Chorus	*>Label>Chorus	*>Label>Chorus	*>Label>Chorus	*>Label>Chorus	*>Label>Chorus
1EM	E:maj	4r	.	.	newline
.	.	8b	Don't	B	.
.	.	8b	it	.	.
.	.	8b	al-	.	.
.	.	8b	-ways	.	.
.	.	[4b	seem	.	.
=108	=108	=108	=108	=108	=108
1EMM	E:maj7	4.b]	_	.	.
.	.	8g#	to	B	.
.	.	8g#	go	.	.
.	.	8f#	_	.	.
.	.	4e	You	.	.
=109	=109	=109	=109	=109	=109
1EM	E:maj	8a	don't	.	.
.	.	4a	know	.	.
.	.	4a	what	.	.
.	.	4a	you've	.	.
.	.	[8a	got	C	.
=110	=110	=110	=110	=110	=110
1EM	E:maj	8a]	_	.	.
.	.	8a	till	.	.
.	.	8g#	it's	.	.
.	.	[8b	gone	C	.
.	.	4b]	_	.	.
.	.	8r	.	.	.
.	.	8B	They	.	.
=111	=111	=111	=111	=111	=111
1AM	A:maj	4c#	paved	.	.
.	.	8e	par-	.	.
.	.	8e	-a-	.	.
.	.	4f#	-dise	.	.
.	.	8f#	and	.	.
.	.	8e	they	.	.
=112	=112	=112	=112	=112	=112
1BM	B:maj	8f#	put	.	.
.	.	8f#	up	.	.
.	.	8e	a	.	.
.	.	[8g#	park-	.	.
.	.	4.g#]	_	.	.
.	.	[8e	-ing	.	.
=113	=113	=113	=113	=113	=113
1EM	E:maj	8e]	_	.	.
.	.	[4.e	lot	C	.
.	.	2e]	_	.	.
=114	=114	=114	=114	=114	=114
1EM	E:maj	2r	.	.	.
.	.	8r	.	.	.
.	.	4e	Oh	.	.
.	.	8e	They	.	.
=115	=115	=115	=115	=115	=115
1AM	A:maj	4c#	pave	.	.
.	.	8e	par-	.	.
.	.	8e	-a-	.	.
.	.	4f#	-dise	.	.
.	.	8f#	and	.	.
.	.	8e	they	.	.
=116	=116	=116	=116	=116	=116
1BM	B:maj	16f#	put	.	.
.	.	8f#	up	.	.
.	.	8.e	those	.	.
.	.	[8g#	park-	.	.
.	.	4.g#]	_	.	.
.	.	[8e	-ing	.	.
=117	=117	=117	=117	=117	=117
1EM	E:maj	8e]	_	.	.
.	.	[4.e	lots	C	.
.	.	2e]	_	.	.
=118	=118	=118	=118	=118	=118
1EM	E:maj	2r	.	.	.
.	.	4.r	.	.	.
.	.	8e	They	.	.
=119	=119	=119	=119	=119	=119
1AM	A:maj	4c#	paved	.	.
.	.	8e	par-	.	.
.	.	8e	-a-	.	.
.	.	4f#	-dise	.	.
.	.	8f#	and	.	.
.	.	8e	they	.	.
=120	=120	=120	=120	=120	=120
1BM	B:maj	8r	.	.	.
.	.	8f#	put	.	.
.	.	8f#	up	.	.
.	.	8e	a	.	.
.	.	8.g#	park-	.	.
.	.	[16e	-ing	.	.
.	.	4e]	_	.	.
=121	=121	=121	=121	=121	=121
1EM	E:maj	2..g#	lot	C	.
.	.	8g#	they	.	.
=122	=122	=122	=122	=122	=122
1EMM	E:maj7	8f#	put	.	.
.	.	8f#	up	.	.
.	.	8e	a	.	.
.	.	[8g#	park-	.	.
.	.	8g#]	_	.	.
.	.	8e	-ing	.	.
.	.	8e	lot	C	.
.	.	8e	They	.	.
=123	=123	=123	=123	=123	=123
1EM	E:maj	8f#	put	.	.
.	.	8f#	up	.	.
.	.	8e	a	.	.
.	.	[8g#	park-	.	.
.	.	8g#]	_	.	.
.	.	4e	-ing	.	.
.	.	[8e	lot	C	.
=124	=124	=124	=124	=124	=124
1EM	E:maj	2e]	_	.	.
.	.	2r	.	.	.
*-	*-	*-	*-	*-	*-
!!!BillboardChartDate: 1975/02/22
!!!BillboardPeak: 24
!!!BillboardWeeksOnChart: 16
!!!COC: Joni Mitchell
!!!EMD: I had to redo the chords completely, because they listened to the wrong (non-live) version. However, I didn't have a instrument with me, so we need to double check. -Nat
!!!ENC: Nathaniel Condit-Schultz
!!!EST: Awating manual error checking and editing.
!!!OTL: Big Yellow Taxi
!!!RDF**chordsym: original McGill chord annotation + (implied pitch class set, with bass pitch in first position)
!!!RDF**harmony: **recip + pitch class of root + harmonic quality
!!!RDF**leadinstrument: original McGill primary instrumentation annotation
!!!RDF**phrase: newline = linebreak in original McGill transcription
!!!RDF**timestamp: McGill audio timestamp in seconds
!!!RDT: 2017/01/12/
!!!SampleActualRank: 41
!!!SampleID#: 0668
!!!SampleTargetRank: 42
!!!MBID: d84a716c-1377-46a3-b2dc-5a8268e9ed00
